map/martin/sprites/navigatum/exit-alt1.svg

<?xml version="1.0" encoding="UTF-8" standalone="no"?>
<svg
   id="entrance-alt1"
   width="15"
   height="15"
   viewBox="0 0 15 15"
   version="1.1"
   xmlns="http://www.w3.org/2000/svg"
   xmlns:svg="http://www.w3.org/2000/svg">
  <defs
     id="defs1" />
  <path
     id="path1"
     style="display:inline"
     d="M 5.5 1 C 4.8333343 1 4.8333343 2 5.5 2 L 11.5 2 C 11.776142 2 12 2.2238579 12 2.5 L 12 12.5 C 12 12.776142 11.776142 13 11.5 13 L 5.25 13 C 4.5833343 13 4.5833343 14 5.25 14 L 12 14 C 12.552284 14 13 13.552284 13 13 L 13 2 C 13 1.4477159 12.552284 1 12 1 L 5.5 1 z M 5.1113281 4.5058594 C 4.9873971 4.4977312 4.8560969 4.5405067 4.7382812 4.6542969 L 2.0722656 7.3300781 C 1.9743367 7.42776 2.0722656 7.6855469 2.0722656 7.6855469 L 4.7382812 10.361328 C 5.209544 10.816489 5.9004732 10.125559 5.4453125 9.6542969 L 3.8007812 8 L 10.5 8 C 11.166666 8 11.166666 7 10.5 7 L 3.8007812 7 L 5.4453125 5.3613281 C 5.7866831 5.0078812 5.4831213 4.5302438 5.1113281 4.5058594 z " />
</svg>

<svg xmlns="http://www.w3.org/2000/svg" viewBox="0 0 15 15">
  <path d="M5.5 1c-.67 0-.67 1 0 1h6c.28 0 .5.22.5.5v10a.5.5 0 0 1-.5.5H5.25c-.67 0-.67 1 0 1H12a1 1 0 0 0 1-1V2a1 1 0 0 0-1-1H5.5zm-.39 3.5a.48.48 0 0 0-.37.15L2.07 7.33c-.1.1 0 .36 0 .36l2.67 2.67c.47.46 1.16-.23.7-.7L3.8 8h6.7c.67 0 .67-1 0-1H3.8l1.65-1.64c.34-.35.03-.83-.34-.85z"/>
</svg>
